X: 121002
P: Same figure.
M: 2/4
L: 1/16
K: A
|:\
e2ed (.c2.c2) | BABc ABcd |\
e2ed (.c2.c2) | BABc A4 ::\
g2a2g2f2 | efed c2d2 |\
e2ee (.e2.f2) | d2e2c2d2 |\
e2dc B2cB | A2z2 a4 |]


